X: 18
I: linebreak $
T: Fulgente Stella
P: AABB x4
K: F major
M: 3/4
L: 1/8
P: A
 | "G"G4A2 | "Gm"B3AG2 | "D"A4A2 | "A"A6 | "G"G2A2B2 | "Gm"B3AG2 | 
"D"A4A2 | "D"A6 :: 
M: 2/4
P: B
"Bb"B4 | "Bb"B2 "F"c2 | "Bb"d2 d2 | "Bb"d2 d2 | "Bb"d2 "F"c2 | "Gm"B3/A/ G2 | 
"F"A4 | "F"A2 "C"G2 | "F"A2 "Bb"B2 | "F"c2 A2 | "Gm"B2 A2 | "C"G2 "F"F2 | 
"C"E^F G2 | "Dsus4"A2 "D"^F2 | "G"G4 | "G"G4 :| 

